src/assets/images/contractActive.svg

<svg fill="none" height="24" viewBox="0 0 24 24" width="24" xmlns="http://www.w3.org/2000/svg" xmlns:xlink="http://www.w3.org/1999/xlink"><clipPath id="a"><path d="m0 0h24v24h-24z"/></clipPath><g clip-path="url(#a)"><path d="m5.93553 2.81745.08654.52929.52193-.12338c1.48731-.3516 3.11056.02018 4.3173 1.1101l-1.65742 1.65995c-.96836-.79471-2.39917-.74093-3.30514.16505-.9627.96269-.96389 2.52326-.00361 3.48355l.46154.46149.00027.0003 2.36151 2.3579.00027.0003 2.14528 2.1452-1.6519 1.6544-2.14832-2.1452-.00026-.0003-2.81945-2.8194c-1.29278-1.2928-1.69541-3.13738-1.20502-4.77856l.15335-.51319-.52251-.11773c-1.20124-.27066-2.101493-1.3449-2.101493-2.63483 0-1.48671 1.210873-2.698313 2.701923-2.698313 1.34085 0 2.45525.979263 2.66521 2.263373zm14.73527 3.74988c.4466 1.55213.096 3.28429-1.0522 4.55167l-1.6573-1.65981c.7967-.9658.7423-2.39872-.1631-3.30073-.956-.95958-2.5127-.96328-3.476.00325-.0004.00039-.0008.00079-.0012.00118l-.4593.45572-.0014.00139-2.3615 2.36152-.0003.00025-2.14499 2.14193-1.65467-1.6547 2.14473-2.14164.00026-.00026 2.82287-2.82287c.0001-.00012.0002-.00024.0004-.00036 1.2865-1.28297 3.1217-1.68864 4.7525-1.2115l.5559.16267.0797-.57377c.1825-1.31397 1.3119-2.327193 2.6779-2.327193 1.4899 0 2.6983 1.210503 2.6983 2.701923 0 1.36859-1.0225 2.50401-2.345 2.67732l-.5763.0755zm-8.4649 8.67057 2.138-2.1411 1.6542 1.6541-2.1412 2.1381-.0005.0005-2.3582 2.3618-.0011.0011-.4601.4637c-.0002.0002-.0004.0004-.0005.0006-1.23335 1.2329-2.9764 1.6519-4.55548 1.2596l-.49361-.1227-.11418.4957c-.27688 1.2018-1.35132 2.0932-2.63217 2.0966-1.49373-.0002-2.701509-1.211-2.701509-2.7019 0-1.277.884459-2.3457 2.078159-2.6289l.49478-.1174-.12572-.4927c-.38618-1.5136-.02427-3.1765 1.08691-4.4061l1.65839 1.6558c-.79289.9682-.73882 2.397.16223 3.3023l.00166.0017c.96565.9611 2.52559.9635 3.48633.0028l2.82331-2.8233zm5.2729 5.6697c-1.5753.4814-3.3474.1405-4.6345-1.0262l1.656-1.6585c.9681.7941 2.3995.7403 3.3015-.165.9614-.9579.9576-2.5142-.0028-3.4791l-.0008-.0009-2.8231-2.823-.0003-.0003-2.138-2.1411 1.6544-1.65186 2.138 2.13806.0003.0002 2.3579 2.3615.0003.0003.4651.4652.0005.0004c1.2306 1.2274 1.6556 2.9571 1.2701 4.5319l-.1317.5378.5484.0763c1.3097.1824 2.3201 1.3112 2.3201 2.6743 0 1.4899-1.2105 2.6983-2.7019 2.6983-1.3051 0-2.3971-.9281-2.6431-2.1581l-.1083-.5415z" fill="#4e47db" stroke="#4e47db"/></g></svg>

<svg width="24" height="24" viewBox="0 0 24 24" fill="none" xmlns="http://www.w3.org/2000/svg">
<g clip-path="url(#clip0_489_174)">
<path d="M5.93553 2.81745L6.02207 3.34674L6.544 3.22336C8.03131 2.87176 9.65456 3.24354 10.8613 4.33346L9.20388 5.99341C8.23552 5.1987 6.80471 5.25248 5.89874 6.15846C4.93604 7.12115 4.93485 8.68172 5.89513 9.64201L6.35667 10.1035L6.35694 10.1038L8.71845 12.4617L8.71872 12.462L10.864 14.6072L9.2121 16.2616L7.06378 14.1164L7.06352 14.1161L4.24407 11.2967C2.95129 10.0039 2.54866 8.15932 3.03905 6.51814L3.1924 6.00495L2.66989 5.88722C1.46865 5.61656 0.568397 4.54232 0.568397 3.25239C0.568397 1.76568 1.77927 0.554077 3.27032 0.554077C4.61117 0.554077 5.72557 1.53334 5.93553 2.81745ZM20.6708 6.56733C21.1174 8.11946 20.7668 9.85162 19.6186 11.119L17.9613 9.45919C18.758 8.49339 18.7036 7.06047 17.7982 6.15846C16.8422 5.19888 15.2855 5.19518 14.3222 6.16171C14.3218 6.1621 14.3214 6.1625 14.321 6.16289L13.8617 6.61861L13.8603 6.62L11.4988 8.98152L11.4985 8.98177L9.35351 11.1237L7.69884 9.469L9.84357 7.32736L9.84383 7.3271L12.6667 4.50423C12.6668 4.50411 12.6669 4.50399 12.6671 4.50387C13.9536 3.2209 15.7888 2.81523 17.4196 3.29237L17.9755 3.45504L18.0552 2.88127C18.2377 1.5673 19.3671 0.554077 20.7331 0.554077C22.223 0.554077 23.4314 1.76458 23.4314 3.256C23.4314 4.62459 22.4089 5.76001 21.0864 5.93332L20.5101 6.00882L20.6708 6.56733ZM12.2059 15.2379L14.3439 13.0968L15.9981 14.7509L13.8569 16.889L13.8564 16.8895L11.4982 19.2513L11.4971 19.2524L11.037 19.7161C11.0368 19.7163 11.0366 19.7165 11.0365 19.7167C9.80315 20.9496 8.0601 21.3686 6.48102 20.9763L5.98741 20.8536L5.87323 21.3493C5.59635 22.5511 4.52191 23.4425 3.24106 23.4459C1.74733 23.4457 0.539551 22.2349 0.539551 20.744C0.539551 19.467 1.42401 18.3983 2.61771 18.1151L3.11249 17.9977L2.98677 17.505C2.60059 15.9914 2.9625 14.3285 4.07368 13.0989L5.73207 14.7547C4.93918 15.7229 4.99325 17.1517 5.8943 18.057L5.89596 18.0587C6.86161 19.0198 8.42155 19.0222 9.38229 18.0615L12.2056 15.2382L12.2059 15.2379ZM17.4788 20.9076C15.9035 21.389 14.1314 21.0481 12.8443 19.8814L14.5003 18.2229C15.4684 19.017 16.8998 18.9632 17.8018 18.0579C18.7632 17.1 18.7594 15.5437 17.799 14.5788L17.7982 14.5779L14.9751 11.7549L14.9748 11.7546L12.8368 9.6135L14.4912 7.96164L16.6292 10.0997L16.6295 10.0999L18.9874 12.4614L18.9877 12.4617L19.4528 12.9269L19.4533 12.9273C20.6839 14.1547 21.1089 15.8844 20.7234 17.4592L20.5917 17.997L21.1401 18.0733C22.4498 18.2557 23.4602 19.3845 23.4602 20.7476C23.4602 22.2375 22.2497 23.4459 20.7583 23.4459C19.4532 23.4459 18.3612 22.5178 18.1152 21.2878L18.0069 20.7463L17.4788 20.9076Z" fill="#4E47DB" stroke="#4E47DB"/>
</g>
<defs>
<clipPath id="clip0_489_174">
<rect width="24" height="24" fill="white"/>
</clipPath>
</defs>
</svg>
